src/assets/images/Original-Graphics/7.svg

<svg xmlns="http://www.w3.org/2000/svg" xmlns:xlink="http://www.w3.org/1999/xlink" width="100" zoomAndPan="magnify" viewBox="0 0 75 74.999997" height="100" preserveAspectRatio="xMidYMid meet" version="1.0"><defs><clipPath id="45119d98fb"><path d="M 13.964844 10.09375 L 61.214844 10.09375 L 61.214844 64.84375 L 13.964844 64.84375 Z M 13.964844 10.09375 " clip-rule="nonzero"/></clipPath></defs><g clip-path="url(#45119d98fb)"><path fill="#b13ed9" d="M 44.722656 28.214844 C 46.359375 28.238281 47.679688 29.574219 47.679688 31.21875 L 47.679688 38.210938 C 48.054688 38.039062 48.476562 37.945312 48.914062 37.945312 C 49.949219 37.945312 50.863281 38.46875 51.40625 39.269531 C 51.734375 39.03125 52.109375 38.863281 52.519531 38.773438 C 52.722656 38.730469 52.9375 38.707031 53.15625 38.707031 C 54.429688 38.707031 55.519531 39.5 55.953125 40.621094 C 56.382812 40.386719 56.871094 40.253906 57.394531 40.253906 C 58.097656 40.253906 58.75 40.496094 59.261719 40.90625 C 59.953125 41.457031 60.394531 42.304688 60.394531 43.257812 C 60.394531 43.257812 60.394531 52.765625 60.394531 52.761719 C 60.484375 55.460938 59.363281 58.320312 57.476562 59.808594 L 57.476562 62.273438 C 57.476562 63.707031 56.3125 64.871094 54.878906 64.871094 L 46.0625 64.871094 C 44.625 64.871094 43.460938 63.707031 43.460938 62.273438 C 43.460938 62.273438 43.460938 61.214844 43.460938 61.214844 L 42.503906 60.667969 C 42.496094 60.664062 42.492188 60.660156 42.488281 60.65625 C 41.207031 59.894531 40.292969 58.777344 39.601562 57.449219 C 39.589844 57.425781 39.578125 57.398438 39.566406 57.375 C 39.566406 57.375 36.285156 49.25 36.289062 49.25 C 35.992188 48.589844 35.917969 47.964844 36.046875 47.390625 C 36.171875 46.804688 36.507812 46.25 37.109375 45.761719 C 37.125 45.75 37.136719 45.738281 37.152344 45.730469 L 41.675781 42.476562 L 41.675781 31.21875 C 41.675781 29.558594 43.019531 28.214844 44.675781 28.214844 C 44.691406 28.214844 44.707031 28.214844 44.722656 28.214844 Z M 43.441406 31.21875 L 43.441406 48.1875 C 43.441406 48.675781 43.046875 49.070312 42.558594 49.070312 C 42.070312 49.070312 41.675781 48.675781 41.675781 48.1875 L 41.675781 44.652344 C 40.238281 45.6875 38.207031 47.144531 38.207031 47.148438 C 37.972656 47.339844 37.820312 47.539062 37.769531 47.769531 C 37.71875 48.007812 37.777344 48.265625 37.902344 48.542969 C 37.910156 48.550781 37.914062 48.5625 37.917969 48.574219 C 37.917969 48.574219 41.1875 56.671875 41.1875 56.671875 C 41.71875 57.6875 42.40625 58.550781 43.386719 59.136719 L 44.785156 59.933594 C 45.058594 60.09375 45.226562 60.382812 45.226562 60.703125 L 45.226562 62.273438 C 45.226562 62.730469 45.601562 63.105469 46.0625 63.105469 L 54.878906 63.105469 C 55.335938 63.105469 55.710938 62.730469 55.710938 62.273438 L 55.710938 59.355469 C 55.710938 59.058594 55.863281 58.777344 56.113281 58.617188 C 57.785156 57.53125 58.707031 55.078125 58.628906 52.808594 C 58.628906 52.800781 58.628906 52.789062 58.628906 52.78125 L 58.628906 43.257812 C 58.628906 42.863281 58.445312 42.515625 58.160156 42.289062 C 57.949219 42.121094 57.683594 42.019531 57.394531 42.019531 C 56.710938 42.019531 56.15625 42.574219 56.15625 43.257812 C 56.15625 43.257812 56.15625 44.828125 56.15625 44.828125 C 56.15625 45.316406 55.761719 45.710938 55.273438 45.710938 C 54.785156 45.710938 54.390625 45.316406 54.390625 44.828125 L 54.390625 41.707031 C 54.390625 41.027344 53.835938 40.472656 53.15625 40.472656 C 53.066406 40.472656 52.976562 40.480469 52.890625 40.5 C 52.335938 40.621094 51.917969 41.117188 51.917969 41.707031 L 51.917969 43.277344 C 51.917969 43.765625 51.523438 44.160156 51.035156 44.160156 C 50.546875 44.160156 50.152344 43.765625 50.152344 43.277344 L 50.152344 40.949219 C 50.152344 40.265625 49.597656 39.710938 48.914062 39.710938 C 48.238281 39.710938 47.6875 40.257812 47.679688 40.933594 C 47.679688 40.9375 47.679688 40.945312 47.679688 40.953125 L 47.679688 42.519531 C 47.679688 43.007812 47.285156 43.402344 46.796875 43.402344 C 46.308594 43.402344 45.914062 43.007812 45.914062 42.519531 L 45.914062 31.21875 C 45.914062 30.539062 45.371094 29.992188 44.695312 29.980469 C 44.6875 29.980469 44.683594 29.980469 44.675781 29.980469 C 43.996094 29.980469 43.441406 30.535156 43.441406 31.21875 Z M 17.242188 45.636719 C 15.160156 42.125 13.964844 38.03125 13.964844 33.65625 C 13.964844 20.671875 24.507812 10.125 37.496094 10.125 C 42.320312 10.125 46.808594 11.582031 50.546875 14.078125 C 50.953125 14.347656 51.058594 14.898438 50.789062 15.300781 C 50.519531 15.707031 49.96875 15.816406 49.566406 15.546875 C 46.109375 13.238281 41.960938 11.890625 37.496094 11.890625 C 25.484375 11.890625 15.730469 21.644531 15.730469 33.65625 C 15.730469 37.796875 16.886719 41.667969 18.898438 44.964844 L 19.363281 43.152344 C 19.484375 42.679688 19.964844 42.394531 20.4375 42.515625 C 20.910156 42.636719 21.195312 43.117188 21.074219 43.589844 L 20.113281 47.335938 C 20.054688 47.566406 19.90625 47.761719 19.699219 47.878906 C 19.492188 48 19.25 48.03125 19.019531 47.964844 L 15.296875 46.925781 C 14.828125 46.796875 14.554688 46.308594 14.683594 45.839844 C 14.816406 45.367188 15.300781 45.09375 15.773438 45.226562 Z M 56.195312 22.519531 L 55.746094 24.285156 C 55.625 24.757812 55.140625 25.042969 54.667969 24.921875 C 54.199219 24.800781 53.914062 24.320312 54.035156 23.847656 L 54.996094 20.101562 C 55.054688 19.871094 55.203125 19.675781 55.410156 19.558594 C 55.613281 19.4375 55.859375 19.40625 56.085938 19.472656 L 59.8125 20.511719 C 60.28125 20.640625 60.554688 21.128906 60.421875 21.597656 C 60.292969 22.070312 59.804688 22.34375 59.335938 22.210938 L 57.816406 21.789062 C 59.855469 25.273438 61.027344 29.328125 61.027344 33.65625 C 61.027344 35.449219 60.828125 37.195312 60.445312 38.875 C 60.339844 39.347656 59.867188 39.648438 59.390625 39.539062 C 58.914062 39.433594 58.617188 38.957031 58.722656 38.484375 C 59.078125 36.929688 59.261719 35.316406 59.261719 33.65625 C 59.261719 29.589844 58.144531 25.78125 56.195312 22.519531 Z M 36.890625 55.414062 C 37.378906 55.429688 37.761719 55.835938 37.75 56.320312 C 37.734375 56.808594 37.328125 57.195312 36.84375 57.179688 C 32.265625 57.054688 28.011719 55.621094 24.445312 53.238281 C 24.039062 52.96875 23.929688 52.417969 24.203125 52.011719 C 24.472656 51.609375 25.023438 51.5 25.425781 51.769531 C 28.726562 53.972656 32.65625 55.300781 36.890625 55.414062 Z M 35.203125 49.460938 C 35.335938 49.929688 35.058594 50.414062 34.589844 50.546875 C 34.121094 50.675781 33.632812 50.398438 33.503906 49.929688 C 33.503906 49.929688 32.746094 47.199219 32.746094 47.199219 C 31.058594 46.605469 29.5 45.707031 28.144531 44.542969 L 25.398438 45.253906 C 25.074219 45.335938 24.734375 45.230469 24.511719 44.976562 C 23.046875 43.296875 21.921875 41.347656 21.199219 39.242188 C 21.09375 38.925781 21.171875 38.574219 21.40625 38.335938 C 21.40625 38.335938 23.394531 36.3125 23.394531 36.3125 C 23.0625 34.558594 23.0625 32.757812 23.394531 31 L 21.40625 28.980469 C 21.171875 28.742188 21.09375 28.390625 21.199219 28.074219 C 21.921875 25.964844 23.046875 24.015625 24.511719 22.335938 C 24.734375 22.085938 25.074219 21.980469 25.398438 22.0625 C 25.398438 22.0625 28.144531 22.773438 28.144531 22.773438 C 29.5 21.609375 31.058594 20.707031 32.746094 20.117188 L 33.503906 17.382812 C 33.589844 17.0625 33.855469 16.816406 34.183594 16.753906 C 36.371094 16.324219 38.621094 16.324219 40.808594 16.753906 C 41.136719 16.816406 41.398438 17.0625 41.488281 17.382812 C 41.488281 17.382812 42.246094 20.117188 42.246094 20.117188 C 43.933594 20.707031 45.492188 21.609375 46.847656 22.773438 L 49.59375 22.0625 C 49.914062 21.980469 50.257812 22.085938 50.480469 22.335938 C 51.945312 24.015625 53.070312 25.964844 53.792969 28.074219 C 53.898438 28.390625 53.820312 28.742188 53.585938 28.980469 C 53.585938 28.980469 51.597656 31 51.597656 31 C 51.929688 32.757812 51.929688 34.5625 51.597656 36.320312 L 52.136719 36.886719 C 52.472656 37.238281 52.460938 37.800781 52.109375 38.136719 C 51.757812 38.472656 51.199219 38.460938 50.859375 38.109375 L 50 37.207031 C 49.796875 36.992188 49.710938 36.691406 49.777344 36.40625 C 50.179688 34.59375 50.179688 32.71875 49.777344 30.910156 C 49.710938 30.617188 49.796875 30.3125 50.007812 30.097656 C 50.007812 30.097656 51.9375 28.136719 51.9375 28.136719 C 51.351562 26.609375 50.527344 25.183594 49.496094 23.910156 L 46.835938 24.601562 C 46.542969 24.675781 46.234375 24.597656 46.015625 24.394531 C 44.652344 23.140625 43.027344 22.203125 41.257812 21.648438 C 40.972656 21.558594 40.75 21.332031 40.671875 21.042969 C 40.671875 21.042969 39.9375 18.390625 39.9375 18.390625 C 38.320312 18.132812 36.671875 18.132812 35.054688 18.390625 L 34.320312 21.042969 C 34.242188 21.332031 34.019531 21.558594 33.734375 21.648438 C 31.964844 22.203125 30.339844 23.140625 28.976562 24.394531 C 28.757812 24.597656 28.449219 24.675781 28.15625 24.601562 C 28.15625 24.601562 25.496094 23.910156 25.496094 23.910156 C 24.464844 25.183594 23.640625 26.609375 23.054688 28.136719 L 24.984375 30.097656 C 25.191406 30.3125 25.28125 30.617188 25.214844 30.910156 C 24.808594 32.71875 24.808594 34.59375 25.214844 36.40625 C 25.28125 36.695312 25.191406 37.003906 24.984375 37.214844 C 24.984375 37.214844 23.054688 39.175781 23.054688 39.175781 C 23.640625 40.707031 24.464844 42.132812 25.496094 43.402344 L 28.15625 42.714844 C 28.449219 42.640625 28.757812 42.714844 28.976562 42.917969 C 30.339844 44.175781 31.964844 45.113281 33.734375 45.667969 C 34.019531 45.757812 34.242188 45.984375 34.320312 46.273438 Z M 39.398438 41.070312 C 39.867188 40.949219 40.351562 41.234375 40.472656 41.707031 C 40.59375 42.179688 40.308594 42.660156 39.835938 42.78125 C 39.085938 42.972656 38.304688 43.074219 37.496094 43.074219 C 32.296875 43.074219 28.078125 38.855469 28.078125 33.65625 C 28.078125 28.460938 32.296875 24.242188 37.496094 24.242188 C 39.585938 24.242188 41.519531 24.921875 43.082031 26.078125 C 43.472656 26.367188 43.558594 26.921875 43.269531 27.3125 C 42.976562 27.703125 42.425781 27.789062 42.03125 27.5 C 40.761719 26.5625 39.195312 26.007812 37.496094 26.007812 C 33.273438 26.007812 29.84375 29.433594 29.84375 33.65625 C 29.84375 37.878906 33.273438 41.308594 37.496094 41.308594 C 38.152344 41.308594 38.789062 41.226562 39.398438 41.070312 Z M 34.253906 34.167969 C 33.910156 33.820312 33.917969 33.261719 34.265625 32.921875 C 34.613281 32.578125 35.171875 32.585938 35.515625 32.933594 L 36.695312 34.140625 L 39.476562 31.296875 C 39.820312 30.949219 40.378906 30.941406 40.726562 31.285156 C 41.074219 31.625 41.082031 32.183594 40.738281 32.53125 L 37.324219 36.019531 C 37.160156 36.1875 36.933594 36.285156 36.695312 36.285156 C 36.457031 36.285156 36.230469 36.1875 36.0625 36.019531 Z M 34.253906 34.167969 " fill-opacity="1" fill-rule="evenodd"/></g></svg>

<svg xmlns="http://www.w3.org/2000/svg" width="100" height="100" viewBox="0 0 75 75"><defs><clipPath id="a"><path d="M13.96 10.1h47.25v54.74H13.96Zm0 0"/></clipPath></defs><g clip-path="url(#a)"><path fill="currentColor" fill-rule="evenodd" d="M44.72 28.21a3 3 0 0 1 2.96 3v7q.57-.26 1.23-.26a3 3 0 0 1 2.5 1.32 3 3 0 0 1 1.75-.56 3 3 0 0 1 2.8 1.91 3 3 0 0 1 4.43 2.64v9.5c.1 2.7-1.03 5.56-2.91 7.05v2.46a2.6 2.6 0 0 1-2.6 2.6h-8.82a2.6 2.6 0 0 1-2.6-2.6v-1.06l-.96-.54-.01-.01a8 8 0 0 1-2.89-3.21l-.03-.08-3.28-8.12a3 3 0 0 1-.24-1.86q.17-.89 1.06-1.63l.04-.03 4.53-3.25V31.22a3 3 0 0 1 3-3zm-1.28 3V48.2a.88.88 0 1 1-1.76 0v-3.54l-3.47 2.5q-.36.28-.44.62-.07.36.13.77l.02.03 3.27 8.1a6 6 0 0 0 2.2 2.47l1.4.8c.27.15.44.44.44.76v1.57c0 .46.37.84.83.84h8.82c.46 0 .83-.38.83-.84v-2.91c0-.3.15-.58.4-.74 1.68-1.09 2.6-3.54 2.52-5.81v-9.55a1.23 1.23 0 0 0-1.24-1.24c-.68 0-1.23.55-1.23 1.24v1.57a.88.88 0 1 1-1.77 0V41.7a1.24 1.24 0 0 0-2.47 0v1.57a.88.88 0 1 1-1.77 0v-2.33a1.24 1.24 0 0 0-2.47-.02v1.59a.88.88 0 1 1-1.77 0v-11.3c0-.68-.54-1.23-1.21-1.24h-.02c-.68 0-1.24.56-1.24 1.24m-26.2 14.43a23.54 23.54 0 0 1 33.3-31.56.88.88 0 0 1-.97 1.47A21.78 21.78 0 0 0 18.9 44.97l.46-1.82a.88.88 0 1 1 1.71.44l-.96 3.75a1 1 0 0 1-.41.54 1 1 0 0 1-.68.08l-3.72-1.03a.88.88 0 1 1 .47-1.7ZM56.2 22.52l-.45 1.77a.88.88 0 1 1-1.71-.44L55 20.1q.09-.35.41-.54.32-.18.68-.09l3.72 1.04c.47.13.74.62.61 1.09a.9.9 0 0 1-1.08.61l-1.52-.42a23.4 23.4 0 0 1 2.63 17.09.88.88 0 0 1-1.72-.4q.53-2.33.53-4.82c0-4.07-1.12-7.88-3.06-11.14m-19.3 32.9c.48.01.86.42.85.9a.9.9 0 0 1-.9.86 23.4 23.4 0 0 1-12.4-3.94.88.88 0 1 1 .98-1.47c3.3 2.2 7.23 3.53 11.46 3.64m-1.7-5.96a.88.88 0 1 1-1.7.47l-.75-2.73q-2.56-.91-4.6-2.66l-2.75.71a.9.9 0 0 1-.89-.27 17 17 0 0 1-3.31-5.74.9.9 0 0 1 .2-.9l2-2.03a14 14 0 0 1 0-5.31l-2-2.02a.9.9 0 0 1-.2-.9 17 17 0 0 1 3.31-5.74.9.9 0 0 1 .89-.28l2.74.71a14 14 0 0 1 4.6-2.65l.76-2.74a.9.9 0 0 1 .68-.63 17 17 0 0 1 6.63 0 .9.9 0 0 1 .68.63l.76 2.74a15 15 0 0 1 4.6 2.65l2.74-.7a.9.9 0 0 1 .89.27 17 17 0 0 1 3.31 5.73.9.9 0 0 1-.2.91l-2 2.02a14 14 0 0 1 0 5.32l.55.57a.9.9 0 0 1-.03 1.25.9.9 0 0 1-1.25-.03l-.86-.9a.9.9 0 0 1-.22-.8c.4-1.82.4-3.7 0-5.5-.07-.3.02-.6.23-.81l1.93-1.96a16 16 0 0 0-2.44-4.23l-2.66.7a.9.9 0 0 1-.82-.22 13 13 0 0 0-4.76-2.74.9.9 0 0 1-.59-.6l-.73-2.66a16 16 0 0 0-4.89 0l-.73 2.65a.9.9 0 0 1-.59.6 13 13 0 0 0-4.75 2.75.9.9 0 0 1-.82.21l-2.66-.69a16 16 0 0 0-2.45 4.23l1.93 1.96c.21.21.3.52.23.81-.4 1.8-.4 3.68 0 5.5.07.29-.02.6-.23.8l-1.93 1.97a16 16 0 0 0 2.45 4.22l2.66-.69a.9.9 0 0 1 .82.2 13 13 0 0 0 4.75 2.76q.45.15.59.6Zm4.2-8.39a.88.88 0 0 1 .44 1.71 9.44 9.44 0 0 1-11.76-9.12 9.42 9.42 0 0 1 15-7.58.88.88 0 0 1-1.05 1.42 7.65 7.65 0 1 0-2.63 13.57m-5.15-6.9a.88.88 0 0 1 1.26-1.23l1.19 1.2 2.78-2.84a.88.88 0 0 1 1.26 1.23l-3.42 3.49a.9.9 0 0 1-1.26 0Zm0 0"/></g></svg>
